Bloom-Colors/scalable/status/weather-windy-symbolic.svg

<svg width="16" height="16" version="1.1" xmlns="http://www.w3.org/2000/svg">
<path d="m8 16s-1 0-1-1 1-1 1-1 1 0 1-1-1-1-1-1h-7s-1 0-1-1 1-1 1-1h7s3 0 3 3-3 3-3 3zm5-13s-1 0-1 1 1 1 1 1 1 0 1 1-1 1-1 1h-8s-1 0-1 1 1 1 1 1h8s3 0 3-3-3-3-3-3zm-5-3s-1 0-1 1 1 1 1 1 1 0 1 1-1 1-1 1h-7s-1 0-1 1 1 1 1 1h7s3 0 3-3-3-3-3-3z" fill="#666"/>
</svg>

<svg xmlns="http://www.w3.org/2000/svg" width="16" height="16" version="1.1">
 <path style="fill:#444444" d="M 8,16 C 8,16 7,16 7,15 7,14 8,14 8,14 8,14 9,14 9,13 9,12 8,12 8,12 H 1 C 1,12 0,12 0,11 0,10 1,10 1,10 H 8 C 8,10 11,10 11,13 11,16 8,16 8,16 Z M 13,3 C 13,3 12,3 12,4 12,5 13,5 13,5 13,5 14,5 14,6 14,7 13,7 13,7 H 5 C 5,7 4,7 4,8 4,9 5,9 5,9 H 13 C 13,9 16,9 16,6 16,3 13,3 13,3 Z M 8,0 C 8,0 7,0 7,1 7,2 8,2 8,2 8,2 9,2 9,3 9,4 8,4 8,4 H 1 C 1,4 0,4 0,5 0,6 1,6 1,6 H 8 C 8,6 11,6 11,3 11,0 8,0 8,0 Z"/>
</svg>
